X:1
T:Vals nº 5
T:Vals nº 13
T:Valses Sentimentais D 969 
T:Franz Schubert
C:Franz Schubert
%%score { ( 1 3 ) | 2 }
L:1/8
Q:1/4=150
M:3/4
K:A
V:1 treble nm="Piano" snm="Pno."
V:3 treble 
V:2 bass 
V:1
!p! z6 | z2 (cedc) | !>!f4 f2- | f2 (fagf) | !>!e4 e2- | e2 e4 | e4 e2- | e2 (egfe) | f4 e2- | %9
 e2 e4 | f4 f2- | f2 (bagf) | e4 e2- | e2 e4 | !>!f4 e2- | e2 .f2 .g2 | a4 e2- | e2 (ce^dc) |: %18
!mf! !>!c4 !>!c2- | c2 g4 | g4 !>!g2- | g2 .^a2 .^b2 | c'4 !>!g2- | g2 g4 | g4 !>!g2- | %25
 g2 .^a2 .^b2 | c'4 !>!g2- | g2!p! [cgc']2 [cgc']2 | [c=gc']4 [cgc']2- | [cgc']2 c'4 | %30
 [fc'f']4 [fc'f']2- | [fc'f']2 (f'a'^g'f') | [be']4 [ae']2- | [ae']2 e4 | f4 e2- | e2 .f2 .g2 |1 %36
 a4 e2- | e2 (ce^dc) :|2 [Aca]6- | [Aca]2 z2 z2 |] %40
V:2
!p! A,,2 [A,CE]2 [A,CE]2 | A,,2 [A,CE]2 [A,CE]2 | D,2 [DF]2 [DF]2 | D,2 [DF]2 [DF]2 | %4
 E,2 [CE]2 [CE]2 | E,2 [CE]2 [CE]2 | E,2 [B,DE]2 [B,DE]2 | E,2 [B,DE]2 [B,DE]2 | %8
 A,,2 [A,CE]2 [A,CE]2 | A,,2 [A,CE]2 [A,CE]2 | D,2 D2 [DF]2 | D,2 [DF]2 [DF]2 | E,2 [CE]2 [CE]2 | %13
 E,2 [CE]2 [CE]2 | E,2 [DE]2 [DE]2 | E,2 [DE]2 [DE]2 | A,,2 [A,CE]2 [A,CE]2 | %17
 A,,2 [A,CE]2 [A,CE]2 |: C,2 [G,C^E]2 [G,CE]2 | C,2 [G,C^E]2 [G,CE]2 | G,,2 [G,^DF]2 [G,DF]2 | %21
 G,,2 [G,^DF]2 [G,DF]2 | C,2 [G,C^E]2 [G,CE]2 | C,2 [G,C^E]2 [G,CE]2 | G,,2 [G,^DF]2 [G,DF]2 | %25
 G,,2 [G,^DF]2 [G,DF]2 | C,2 [G,C^E]2 [G,CE]2 | C,2 [G,C^E]2 [G,CE]2 | A,,2 [A,E]2 [A,E]2 | %29
 A,,2 [A,E]2 [A,E]2 | D,2 D2 [DF]2 | D,2 [DF]2 [DF]2 | E,2 [CE]2 [CE]2 | E,2 [CE]2 [CE]2 | %34
 E,2 [DE]2 [DE]2 | E,2 [DE]2 [DE]2 |1 A,,2 [A,CE]2 [A,CE]2 | A,,2 [A,CE]2 [A,CE]2 :|2 %38
 A,,2 [A,C]2 [A,C]2 | [A,C]2 z2 z2 |] %40
V:3
 x6 | x6 | c4 B2- | B2 B4 | B4 A2- | A2 (AcBA) | A4 G2- | G2 G4 | A4 A2- | A2 (cBA=G) | [Fc]4 B2- | %11
 B2 B4 | B4 A2- | A2 (dcBA) | A4 G2- | G2 A2 B2 | [Ac]4 [Ac]2- | [Ac]2 z2 z2 |: x6 | x2 (c^e^dc) | %20
 [cf]4 [^Bf]2- | [Bf]2 [cf]2 [^df]2 | [c^e]4 [ce]2- | [ce]2 (c^e^dc) | [cf]4 [^Bf]2- | %25
 [Bf]2 [cf]2 [^df]2 | [c^e]4 [ce]2- | [ce]2 x4 | x6 | z2 (=gbag) | x6 | x2 b4 | x6 | x2 (AcBA) | %34
 A4 G2- | G2 A2 B2 |1 [Ac]4 [Ac]2- | [Ac]2 x4 :|2 x6 | x6 |] %40

